svgs/light/dumbbell.svg

<svg xmlns="http://www.w3.org/2000/svg" viewBox="0 0 640 512"><!-- Font Awesome Pro 6.0.0-alpha2 by @fontawesome - https://fontawesome.com License - https://fontawesome.com/license (Commercial License) --><path d="M624 240H608V160C608 133.492 586.51 112 560 112H528C522.375 112 517 113.25 512 114.875V96C512 69.492 490.51 48 464 48H432C405.49 48 384 69.492 384 96V240H256V96C256 69.492 234.51 48 208 48H176C149.49 48 128 69.492 128 96V114.875C123 113.125 117.625 112 112 112H80C53.49 112 32 133.492 32 160V240H16C7.199 240 0 247.199 0 256C0 264.797 7.199 272 16 272H32V352C32 378.508 53.49 400 80 400H112C117.625 400 123 398.75 128 397.125V416C128 442.508 149.49 464 176 464H208C234.51 464 256 442.508 256 416V272H384V416C384 442.508 405.49 464 432 464H464C490.51 464 512 442.508 512 416V397.125C517 398.875 522.375 400 528 400H560C586.51 400 608 378.508 608 352V272H624C632.801 272 640 264.797 640 256C640 247.199 632.801 240 624 240ZM128 352C128 360.75 120.75 368 112 368H80C71.25 368 64 360.75 64 352V160C64 151.25 71.25 144 80 144H112C120.75 144 128 151.25 128 160V352ZM224 416C224 424.75 216.75 432 208 432H176C167.25 432 160 424.75 160 416V96C160 87.25 167.25 80 176 80H208C216.75 80 224 87.25 224 96V416ZM480 416C480 424.75 472.75 432 464 432H432C423.25 432 416 424.75 416 416V96C416 87.25 423.25 80 432 80H464C472.75 80 480 87.25 480 96V416ZM576 352C576 360.75 568.75 368 560 368H528C519.25 368 512 360.75 512 352V160C512 151.25 519.25 144 528 144H560C568.75 144 576 151.25 576 160V352Z"/></svg>

<svg xmlns="http://www.w3.org/2000/svg" viewBox="0 0 640 512"><!--! Font Awesome Pro 6.3.0 by @fontawesome - https://fontawesome.com License - https://fontawesome.com/license (Commercial License) Copyright 2023 Fonticons, Inc. --><path d="M624 240H608V160c0-26.51-21.49-48-48-48h-32c-5.625 0-11 1.25-16 2.875V96c0-26.51-21.49-48-48-48h-32C405.5 48 384 69.49 384 96v144H256V96c0-26.51-21.49-48-48-48h-32C149.5 48 128 69.49 128 96v18.88C123 113.1 117.6 112 112 112h-32C53.49 112 32 133.5 32 160v80H16C7.199 240 0 247.2 0 256c0 8.797 7.199 16 16 16H32V352c0 26.51 21.49 48 48 48h32c5.625 0 11-1.25 16-2.875V416c0 26.51 21.49 48 48 48h32C234.5 464 256 442.5 256 416V272h128V416c0 26.51 21.49 48 48 48h32c26.51 0 48-21.49 48-48v-18.88C517 398.9 522.4 400 528 400h32c26.51 0 48-21.49 48-48V272h16C632.8 272 640 264.8 640 256C640 247.2 632.8 240 624 240zM128 352c0 8.75-7.25 16-16 16h-32C71.25 368 64 360.8 64 352V160c0-8.75 7.25-16 16-16h32C120.8 144 128 151.3 128 160V352zM224 416c0 8.75-7.25 16-16 16h-32C167.3 432 160 424.8 160 416V96c0-8.75 7.25-16 16-16h32C216.8 80 224 87.25 224 96V416zM480 416c0 8.75-7.25 16-16 16h-32c-8.75 0-16-7.25-16-16V96c0-8.75 7.25-16 16-16h32C472.8 80 480 87.25 480 96V416zM576 352c0 8.75-7.25 16-16 16h-32c-8.75 0-16-7.25-16-16V160c0-8.75 7.25-16 16-16h32C568.8 144 576 151.3 576 160V352z"/></svg>
